src/xmb/monochrome/Sony - PlayStation 3 (Downloadable).svg

<svg xmlns="http://www.w3.org/2000/svg" xml:space="preserve" id="svg5021" x="0" y="0" version="1.1" viewBox="0 0 64 64"><style>.st0{fill:#fff}</style><g id="g5029" transform="matrix(1.25 0 0 -1.25 0 64)"><g id="g5031" transform="scale(.8)"><g id="g5033"><g id="g5039" transform="translate(52 33)"><path id="path5041" d="M0 0c-1.1 0-2 .9-2 2s.9 2 2 2 2-.9 2-2-.9-2-2-2m-4-4c-1.1 0-2 .9-2 2s.9 2 2 2 2-.9 2-2-.9-2-2-2m-4 4c-1.1 0-2 .9-2 2s.9 2 2 2 2-.9 2-2-.9-2-2-2m-4-9c-1.66 0-3 1.34-3 3s1.34 3 3 3 3-1.34 3-3-1.34-3-3-3m-5 10.27v1.46c0 .17.15.3.31.26l2.44-.65c.33-.09.33-.59 0-.68l-2.44-.65c-.16-.04-.31.08-.31.26M-20-5c-.83 0-1.5.67-1.5 1.5S-20.83-2-20-2s1.5-.67 1.5-1.5S-19.17-5-20-5m-3 6.25c0-.14-.11-.25-.25-.25h-2.5c-.14 0-.25.11-.25.25v1.5c0 .14.11.25.25.25h2.5c.14 0 .25-.11.25-.25zM-28-9c-1.66 0-3 1.34-3 3s1.34 3 3 3 3-1.34 3-3-1.34-3-3-3m-4.27 10h-1.79c-.23 0-.45.06-.63.17-.47.28-1.31.85-1.31 1.33 0 .45.68 1 1.09 1.29.2.14.44.21.69.21h1.94c.16 0 .28-.1.28-.23V1.23c0-.13-.12-.23-.27-.23M-35-1.73c0-.15-.1-.27-.23-.27h-2.53c-.14 0-.24.12-.24.27V.06c0 .23.06.45.17.63.28.47.86 1.31 1.33 1.31.45 0 1-.68 1.29-1.09.14-.2.21-.44.21-.7zM-38.93 1h-1.79c-.16 0-.28.1-.28.23v2.53c0 .14.12.24.27.24h1.94c.25 0 .5-.07.69-.21.42-.29 1.1-.84 1.1-1.29 0-.47-.84-1.05-1.3-1.33-.19-.11-.41-.17-.63-.17m.93 5.73c0 .15.1.27.23.27h2.53c.14 0 .24-.12.24-.27V4.78c0-.25-.07-.5-.21-.69C-35.5 3.68-36.05 3-36.5 3c-.47 0-1.05.84-1.33 1.3-.11.18-.17.41-.17.63zM-4 8c1.1 0 2-.9 2-2s-.9-2-2-2-2 .9-2 2 .9 2 2 2m8.65-6.39c.01.2.02.39.02.59 0 2.79-1.35 5.28-3.44 6.87l-2.46 4.97c-.1.26-.32.46-.59.55-1.54.51-3.11.56-4.72.03C-6.8 14.54-7.92 13.2-8 13l-1.12-2.74c-.17-.44-.61-.74-1.09-.74h-19.74c-.39 0-.73.23-.87.59L-32 13c-.08.2-1.2 1.54-1.47 1.62-1.61.53-2.99.48-4.53-.03-.27-.09-3.23-5.52-3.23-5.52-2.09-1.59-3.44-4.08-3.44-6.87 0-.2.01-.4.02-.59C-45.44-2.7-47-11.29-47-11.51c0-3.03 2.5-5.49 5.59-5.49 2.34 0 3.72 1.83 5.18 3.43l3.9 5.13C-31.48-9.96-29.87-11-28-11c2.42 0 4.43 1.72 4.9 4h6.2a5 5 0 0 1 4.9-4c1.87 0 3.48 1.04 4.34 2.56l3.9-5.13C-2.31-15.17-.93-17 1.41-17 4.5-17 7-14.54 7-11.51c0 .22-1.56 8.81-2.35 13.12" class="st0"/></g></g></g></g><path d="M29.73 10.34v-6.1c0-.56.45-1.01 1.01-1.01h2.03c.56 0 1.01.45 1.01 1.01v6.09h3.05l-5.09 6.09-5.09-6.09c.03.01 3.08.01 3.08.01m6.6 8.13h-9.14c-.32 0-.52-.2-.52-.52s.2-.52.52-.52h9.14c.32 0 .52.2.52.52-.01.33-.22.52-.52.52m1.02-3.05h-1.03v1.01h-1.01v-1.01h-1.02v-1.01h1.01V13.4h1.01v1.01h1.03z" class="st0"/></svg>

<?xml version="1.0" encoding="utf-8"?>
<!-- Generator: Adobe Illustrator 26.3.1, SVG Export Plug-In . SVG Version: 6.00 Build 0)  -->
<svg version="1.1"
	 id="svg5021" xmlns:inkscape="http://www.inkscape.org/namespaces/inkscape" xmlns:svg="http://www.w3.org/2000/svg" xmlns:rdf="http://www.w3.org/1999/02/22-rdf-syntax-ns#" xmlns:cc="http://creativecommons.org/ns#" xmlns:sodipodi="http://sodipodi.sourceforge.net/DTD/sodipodi-0.dtd" xmlns:dc="http://purl.org/dc/elements/1.1/" inkscape:export-filename="/Users/margetts/Desktop/Icon Workshop/Monochrome Plus June/png/Sony - PlayStation 3.png"
	 xmlns="http://www.w3.org/2000/svg" xmlns:xlink="http://www.w3.org/1999/xlink" x="0px" y="0px" viewBox="0 0 64 64"
	 style="enable-background:new 0 0 64 64;" xml:space="preserve">
<style type="text/css">
	.st0{fill:#FFFFFF;}
</style>
<g id="g5029" transform="matrix(1.25,0,0,-1.25,0,64)" inkscape:groupmode="layer" inkscape:label="Sony - PlayStation 3">
	<g id="g5031" transform="matrix(0.8,0,0,0.8,0,6.4671403e-5)">
		<g>
			<g id="g5033">
				<g id="g5039" transform="translate(52,33)">
					<path id="path5041" inkscape:connector-curvature="0" class="st0" d="M0,0c-1.1,0-2,0.9-2,2s0.9,2,2,2s2-0.9,2-2S1.1,0,0,0
						 M-4-4c-1.1,0-2,0.9-2,2s0.9,2,2,2s2-0.9,2-2S-2.9-4-4-4 M-8,0c-1.1,0-2,0.9-2,2s0.9,2,2,2s2-0.9,2-2S-6.9,0-8,0 M-12-9
						c-1.66,0-3,1.34-3,3s1.34,3,3,3s3-1.34,3-3S-10.34-9-12-9 M-17,1.27v1.46c0,0.17,0.15,0.3,0.31,0.26l2.44-0.65
						c0.33-0.09,0.33-0.59,0-0.68l-2.44-0.65C-16.85,0.97-17,1.09-17,1.27 M-20-5c-0.83,0-1.5,0.67-1.5,1.5S-20.83-2-20-2
						s1.5-0.67,1.5-1.5S-19.17-5-20-5 M-23,1.25C-23,1.11-23.11,1-23.25,1h-2.5C-25.89,1-26,1.11-26,1.25v1.5
						C-26,2.89-25.89,3-25.75,3h2.5C-23.11,3-23,2.89-23,2.75V1.25z M-28-9c-1.66,0-3,1.34-3,3s1.34,3,3,3s3-1.34,3-3S-26.34-9-28-9
						 M-32.27,1h-1.79c-0.23,0-0.45,0.06-0.63,0.17C-35.16,1.45-36,2.02-36,2.5c0,0.45,0.68,1,1.09,1.29
						C-34.71,3.93-34.47,4-34.22,4h1.94C-32.12,4-32,3.9-32,3.77V1.23C-32,1.1-32.12,1-32.27,1 M-35-1.73C-35-1.88-35.1-2-35.23-2
						h-2.53C-37.9-2-38-1.88-38-1.73v1.79c0,0.23,0.06,0.45,0.17,0.63C-37.55,1.16-36.97,2-36.5,2c0.45,0,1-0.68,1.29-1.09
						C-35.07,0.71-35,0.47-35,0.21V-1.73z M-38.93,1h-1.79C-40.88,1-41,1.1-41,1.23v2.53C-41,3.9-40.88,4-40.73,4h1.94
						c0.25,0,0.5-0.07,0.69-0.21C-37.68,3.5-37,2.95-37,2.5c0-0.47-0.84-1.05-1.3-1.33C-38.49,1.06-38.71,1-38.93,1 M-38,6.73
						C-38,6.88-37.9,7-37.77,7h2.53C-35.1,7-35,6.88-35,6.73V4.78c0-0.25-0.07-0.5-0.21-0.69C-35.5,3.68-36.05,3-36.5,3
						c-0.47,0-1.05,0.84-1.33,1.3C-37.94,4.48-38,4.71-38,4.93V6.73z M-4,8c1.1,0,2-0.9,2-2s-0.9-2-2-2s-2,0.9-2,2S-5.1,8-4,8
						 M4.65,1.61C4.66,1.81,4.67,2,4.67,2.2c0,2.79-1.35,5.28-3.44,6.87l-2.46,4.97c-0.1,0.26-0.32,0.46-0.59,0.55
						c-1.54,0.51-3.11,0.56-4.72,0.03C-6.8,14.54-7.92,13.2-8,13l-1.12-2.74c-0.17-0.44-0.61-0.74-1.09-0.74h-19.74
						c-0.39,0-0.73,0.23-0.87,0.59L-32,13c-0.08,0.2-1.2,1.54-1.47,1.62c-1.61,0.53-2.99,0.48-4.53-0.03
						c-0.27-0.09-3.23-5.52-3.23-5.52c-2.09-1.59-3.44-4.08-3.44-6.87c0-0.2,0.01-0.4,0.02-0.59C-45.44-2.7-47-11.29-47-11.51
						c0-3.03,2.5-5.49,5.59-5.49c2.34,0,3.72,1.83,5.18,3.43l3.9,5.13C-31.48-9.96-29.87-11-28-11c2.42,0,4.43,1.72,4.9,4h6.2
						c0.46-2.28,2.48-4,4.9-4c1.87,0,3.48,1.04,4.34,2.56l3.9-5.13C-2.31-15.17-0.93-17,1.41-17C4.5-17,7-14.54,7-11.51
						C7-11.29,5.44-2.7,4.65,1.61"/>
				</g>
			</g>
		</g>
	</g>
</g>
<g>
	<path class="st0" d="M29.73,10.34V4.24c0-0.56,0.45-1.01,1.01-1.01h2.03c0.56,0,1.01,0.45,1.01,1.01v6.09h3.05l-5.09,6.09
		l-5.09-6.09C26.68,10.34,29.73,10.34,29.73,10.34z M36.33,18.47h-9.14c-0.32,0-0.52-0.2-0.52-0.52c0-0.32,0.2-0.52,0.52-0.52h9.14
		c0.32,0,0.52,0.2,0.52,0.52C36.84,18.28,36.63,18.47,36.33,18.47z M37.35,15.42h-1.03v1.01h-1.01v-1.01h-1.02v-1.01h1.01v-1.01
		h1.01v1.01h1.03L37.35,15.42L37.35,15.42z"/>
</g>
</svg>
